**kern	**kern	**dynam
*part1	*part1	*part1
*staff2	*staff1	*
*I"Piano	*	*
*clefF4	*clefG2	*
*k[]	*k[]	*
=1	=1	=1
4BB	8r	.
.	8B 8e 8g	.
4BB	8r	.
.	8B 8e 8g	.
4BBB 4BB	8r	.
.	8F#X 8A 8d#X	.
=	=	=
4EE 4E	8G 8e	.
!	!LO:TX:b:i:t=cresc.	!
.	4b	.
8r	.	.
(8GL 8B	(8bL	.
8F#X 8A	8dd#X	.
8EJ) 8G	8eeJ)	.
=	=	=
4.A 4.c	(4ee	sf >
.	8f#X)	.
8r	8r	]
4r	(12f#L	p
.	12a	.
.	12ccJ)	.
=	=	=
4r	(4cc	.
4BB 4E 4G	4.b)	.
4BB 4F#X 4A	.	.
.	(8d#X	.
=	=	=
4EE	4A 4d#X 4f#X	.
8E	8G) 8e	.
8r	8r	.
4r	4r	.
=	=	=
2.EE 2.E	8r	p
.	8BL 8e 8g	.
.	8B 8e 8g	.
.	8B 8e 8g	.
.	8B 8e 8g	.
.	8BJ 8e 8g	.
=	=	=
2.DD#X 2.D#X	8r	.
.	8BL 8f#X 8a	.
.	8B 8f# 8a	.
.	8B 8f# 8a	.
.	8B 8f# 8a	.
.	8BJ 8f# 8a	.
=	=	=
*-	*-	*-
!!!system-decoration: {(s1,s2)}
